X:1
T:Title
%%score [ 1 2 3 4 ]
L:1/8
Q:1/4=120
M:2/2
K:F
V:1 treble nm="Soprano" snm="S"
V:2 treble nm="Alto" snm="A"
V:3 treble-8 nm="Tenor" snm="T"
V:4 bass nm="Bass" snm="B"
V:1
 F6 G2 | A6 B2 | c6 B2 | A6 G2 | F4 z4 | z8 | z8 | F3 E F2 G2 | A3 G A2 B2 | c3 B c2 B2 | %10
w: Be- ne-|dic- *|||tus,|||be- * * ne-|dic- * * *||
 A3 B A2 G2 | F3 G A2 d2 | A3 G A2 B2 | c3 B c2 d2 | c4 AB cd | c4 GA Bc | A4 FGAB | A4 cB AG | %18
w: ||||tus qui _ _ _|ve- nit _ _ _|in n- * * *|me, Do- * * *|
 A4 cdcB | A4 dcBA | G4 cBcd | c6 B2 | A8 | cB AG FG A2 | Bc Bd cA GB | G2 AB cB c2 | dc BA G3 c | %27
w: |||* mi-|ni.|Ho- * * * san- * na|in _ ex _ cel- * sis, _|in ex _ cel- * sis,|ho- * * * san- *|
 c4 A4 | =B4 c4 | d8 | e8 | c8 | A4 c4 | A4 d2 B2 | c2 BA G2 c2 | c8 | B4 A4 | G8 | ^F8 | G4 F4 | %40
w: na in|ex- *|cel-|sis,|in|ex- *|cel _ _|_ _ _ _ _|sis,|in ex-|cel-|sis,|in ex-|
 G8 | ^F8 | G4 c4 | =B8 | E8 | A4 d4 | B8 | c8 | d2 B2 A2 G2 | G4 A2 B2 | c8 |] %51
w: cel-|sis,|in ex-|cel-|sis,|in ex-|cel-|sis,|in _ _ ex-|cel- * *|sis.|
V:2
 z8 | F6 G2 | A6 B2 | c6 B2 | A6 G2 | F4 z4 | z8 | z8 | F3 E F2 G2 | A3 G A2 B2 | c3 G c2 B2 | %11
w: |Be- ne-|dic- *|||tus,|||be- * * ne-|dic- * * *||
 A3 B A2 G2 | F3 G F2 E2 | F3 D E2 G2 | AGFE FGAB | A2 F2 BA G2 | C4 DEFG | AGFE FGAB | F4 G2 AG | %19
w: |||tus _ _ _ qui _ _ _|ve- * nit _ _|in no- * * *|men _ _ _ Do- * * *||
 F6 D2 | E4 FGAB | A4 B2 G2 | F8 | z4 FEDC | GFED CDEF | G2 FE FGAG | F2 D2 F2 E2 | F8 | E4 E4 | %29
w: ||* * mi-|ni.|Ho- * * *|san- * * * na _ _ _|in ex- * cel- * * *|sis, ho- san- *|na|in ex-|
 F8 | G8 | A8 | FEFA GABG | F2 GA B2 FG | A2 F4 E2 | F8 | F4 F4 | D4 C4 | D8 | B,4 F4 | _E8 | D8 | %42
w: cel-|sis,|in|ex- * * * * * * *|cel- * * * * *||sis,|in ex-|cel- *|sis,|in ex-|cel-|sis,|
 D6 E2 | A4 ^G4 | A8 | F4 G4 | F8 | A8 | F2 G2 F2 D2 | C2 DE F2 GE | F8 |] %51
w: in ex-|* cel-|sis,|in ex-|cel-|sis,|in _ _ ex-|cel- * * * * *|sis.-|
V:3
 z8 | z8 | F6 G2 | A6 B2 | c6 B2 | A6 G2 | F4 z4 | z8 | z8 | F3 E F2 G2 | A3 G A2 B2 | c3 d c2 B2 | %12
w: ||Be- ne-|dic- *|||tus,|||be- * * ne|dic- * * *||
 A3 B A2 G2 | F3 G A2 B2 | F2 A2 c3 B | A4 G4 | A2 Bc A2 A2 | cB AG AGFG | cBAG c4 | c4 BAGF | %20
w: ||tus qui ve- *|* nit|in _ _ no- mi-|ne _ _ _ Do- * * *|mi- * * * ni,|in no- * * *|
 G2 c2 AB c2- | c2 BA G2 c2 | c8 | z8 | BAGF GA cd | c3 B A4 | B2 G2 G4 | A8 | G4 A4 | A8 | c8 | %31
w: * men Do- * *|* * * * mi-|ni.||Ho- * * * san- * na _|in ex- cel-|sis, ho- san-|na|in ex-|cel-|sis,|
 c8 | dcBA c2 dB | dcBA F2 D2 | A4 G4 | A8 | d4 c4 | B8 | A8 | d4 d4 | B4 c4 | A8 | =B4 A4 | e8 | %44
w: in|ex- * * * * * *|cel- * * * * *||sis,|in ex-|cel-|sis,|in ex-|cel- *|sis,|in ex-|cel-|
 ^c8 | d4 B4 | d8 | c8 | d6 f2 | e2 dB c2 Bc | A8 |] %51
w: sis,|in ex-|cel-|sis|in- ex-|cel- * * * * *|sis.|
V:4
 z8 | z8 | z8 | F,6 G,2 | A,6 B,2 | C6 B,2 | A,6 G,2 | F,4 z4 | z8 | z8 | F,3 E, F,2 G,2 | %11
w: |||Be- ne-|dic- *|||tus,|||be- * * ne-|
 A,3 G, A,2 B,2 | C3 B, A,2 G,2 | A,3 B, A,2 G,2 | F,4 F,4 | F,4 E,4 | F,4 D,2 F,2 | F,4 F,4 | %18
w: dic- * * *|||tus qui|ve- nit|in no- mi-|ne Do-|
 F,4 E,4 | F,4 B,,4 | C,4 F,4- | F,4 E,4 | F,8 | z8 | z4 E,D, C,B,, | C,4 F,4 | B,,4 C,4 | F,8 | %28
w: mi- ni,|in no-|men Do-|* mi-|ni.||Ho- * * *|san- na,|ho- san-|na|
 E,4 A,,4 | D,8 | C,8 | F,8 | D,4 E,4 | D,4 B,,4 | F,4 C,4 | F,8 | B,4 F,4 | G,8 | D,8 | G,4 B,4 | %40
w: in ex-|cel-|sis,|in|ex- *|cel- *||sis,|in ex-|cel-|sis,|in ex-|
 _E,4 C,4 | D,8 | G,4 ^F,4 | E,8 | A,8 | D,4 G,4 | B,8 | F,8 | B,2 G,2 D,2 B,,2 | C,4 F,2 C,2 | %50
w: cel- *|sis,|in ex-|cel-|sis,|in ex-|cel-|sis|in _ _ ex-|cel- * *|
 [F,,F,]8 |] %51
w: sis.|

